src/pos-icons/theme-light-dark.svg

<svg height="24" viewBox="0 0 24 24" width="24" xmlns="http://www.w3.org/2000/svg"><path d="m7.5 2c-1.79 1.15-3 3.18-3 5.5s1.21 4.35 3.03 5.5c-3.07 0-5.53-2.46-5.53-5.5a5.5 5.5 0 0 1 5.5-5.5m11.57 1.5 1.43 1.43-15.57 15.57-1.43-1.43zm-6.18 2.43-1.48-.93-1.44 1 .42-1.7-1.39-1.06 1.75-.12.58-1.65.67 1.63 1.73.03-1.35 1.13zm-3.3 3.61-1.16-.73-1.12.78.34-1.32-1.09-.83 1.36-.09.45-1.29.51 1.27 1.36.03-1.05.87zm9.41 3.96a5.5 5.5 0 0 1 -5.5 5.5c-1.22 0-2.35-.4-3.26-1.07l7.69-7.69c.67.91 1.07 2.04 1.07 3.26m-4.4 6.58 2.77-1.15-.24 3.35zm4.33-2.7 1.15-2.77 2.2 2.54zm1.15-4.96-1.14-2.78 3.34.24zm-10.45 6.51 2.77 1.15-2.53 2.19z"/></svg>

<?xml version="1.0" encoding="UTF-8"?><!DOCTYPE svg PUBLIC "-//W3C//DTD SVG 1.1//EN" "http://www.w3.org/Graphics/SVG/1.1/DTD/svg11.dtd"><svg xmlns="http://www.w3.org/2000/svg" xmlns:xlink="http://www.w3.org/1999/xlink" version="1.1" id="mdi-theme-light-dark" width="24" height="24" viewBox="0 0 24 24"><path d="M7.5,2C5.71,3.15 4.5,5.18 4.5,7.5C4.5,9.82 5.71,11.85 7.53,13C4.46,13 2,10.54 2,7.5A5.5,5.5 0 0,1 7.5,2M19.07,3.5L20.5,4.93L4.93,20.5L3.5,19.07L19.07,3.5M12.89,5.93L11.41,5L9.97,6L10.39,4.3L9,3.24L10.75,3.12L11.33,1.47L12,3.1L13.73,3.13L12.38,4.26L12.89,5.93M9.59,9.54L8.43,8.81L7.31,9.59L7.65,8.27L6.56,7.44L7.92,7.35L8.37,6.06L8.88,7.33L10.24,7.36L9.19,8.23L9.59,9.54M19,13.5A5.5,5.5 0 0,1 13.5,19C12.28,19 11.15,18.6 10.24,17.93L17.93,10.24C18.6,11.15 19,12.28 19,13.5M14.6,20.08L17.37,18.93L17.13,22.28L14.6,20.08M18.93,17.38L20.08,14.61L22.28,17.15L18.93,17.38M20.08,12.42L18.94,9.64L22.28,9.88L20.08,12.42M9.63,18.93L12.4,20.08L9.87,22.27L9.63,18.93Z" /></svg>
